src/assets/footer/i3.svg

<?xml version="1.0" encoding="UTF-8"?>
<svg width="30px" height="30px" viewBox="0 0 30 30" version="1.1" xmlns="http://www.w3.org/2000/svg" xmlns:xlink="http://www.w3.org/1999/xlink">
    <title>icon / instagram white copy</title>
    <defs>
        <filter color-interpolation-filters="auto" id="filter-1">
            <feColorMatrix in="SourceGraphic" type="matrix" values="0 0 0 0 0.920814 0 0 0 0 0.920814 0 0 0 0 0.920814 0 0 0 1.000000 0"></feColorMatrix>
        </filter>
    </defs>
    <g id="Mobile" stroke="none" stroke-width="1" fill="none" fill-rule="evenodd">
        <g id="Mobile-landing-" transform="translate(-178.000000, -1766.000000)">
            <g id="icon-/-instagram-white-copy" transform="translate(178.000000, 1766.000000)" filter="url(#filter-1)">
                <g id="instagram" fill="#000000" fill-rule="nonzero">
                    <path d="M17.8536585,14.9853659 C17.8536585,16.5695122 16.5695122,17.8536585 14.9853659,17.8536585 C13.4012195,17.8536585 12.1170732,16.5695122 12.1170732,14.9853659 C12.1170732,13.4012195 13.4012195,12.1170732 14.9853659,12.1170732 C16.5695122,12.1170732 17.8536585,13.4012195 17.8536585,14.9853659 Z" id="Path"></path>
                    <path d="M21.6932927,9.91051832 C21.5554116,9.53689024 21.3354421,9.19870425 21.0496189,8.92111282 C20.7720275,8.63528962 20.4340701,8.41532014 20.0602134,8.27743902 C19.7570122,8.15967986 19.3015244,8.0195122 18.4625762,7.9813262 C17.5550305,7.93993902 17.2829268,7.93102133 14.9853659,7.93102133 C12.6875762,7.93102133 12.4154725,7.93971038 11.5081555,7.98109756 C10.6692073,8.0195122 10.2134909,8.15967986 9.91051832,8.27743902 C9.5366616,8.41532014 9.19847561,8.63528962 8.92111282,8.92111282 C8.63528962,9.19870425 8.41532014,9.5366616 8.27721038,9.91051832 C8.15945122,10.2137195 8.01928355,10.669436 7.98109756,11.5083841 C7.93971038,12.4157012 7.93079268,12.6878049 7.93079268,14.9855945 C7.93079268,17.2831555 7.93971038,17.5552592 7.98109756,18.4628049 C8.01928355,19.301753 8.15945122,19.7572408 8.27721038,20.0604421 C8.41532014,20.4342988 8.63506098,20.7722561 8.92088418,21.0498475 C9.19847561,21.3356707 9.5364329,21.5556403 9.91028962,21.6935213 C10.2134909,21.8115091 10.6692073,21.9516768 11.5081555,21.9898628 C12.4154725,22.03125 12.6873476,22.039939 14.9851372,22.039939 C17.2831555,22.039939 17.5552592,22.03125 18.4623476,21.9898628 C19.3012957,21.9516768 19.7570122,21.8115091 20.0602134,21.6935213 C20.8106707,21.4040396 21.403811,20.8108994 21.6932927,20.0604421 C21.8110518,19.7572408 21.9512195,19.301753 21.9896341,18.4628049 C22.0310213,17.5552592 22.0397104,17.2831555 22.0397104,14.9855945 C22.0397104,12.6878049 22.0310213,12.4157012 21.9896341,11.5083841 C21.9514482,10.669436 21.8112805,10.2137195 21.6932927,9.91051832 L21.6932927,9.91051832 Z M14.9853659,19.4039634 C12.5448933,19.4039634 10.5665396,17.4258384 10.5665396,14.9853659 C10.5665396,12.5448933 12.5448933,10.5667683 14.9853659,10.5667683 C17.4256098,10.5667683 19.4039634,12.5448933 19.4039634,14.9853659 C19.4039634,17.4258384 17.4256098,19.4039634 14.9853659,19.4039634 Z M19.5786585,11.4246951 C19.0083841,11.4246951 18.5460366,10.9623476 18.5460366,10.3920732 C18.5460366,9.82179875 19.0083841,9.35945122 19.5786585,9.35945122 C20.148933,9.35945122 20.6112805,9.82179875 20.6112805,10.3920732 C20.6110518,10.9623476 20.148933,11.4246951 19.5786585,11.4246951 Z" id="Shape"></path>
                    <path d="M14.9853659,0 C6.71044209,0 0,6.71044209 0,14.9853659 C0,23.2602896 6.71044209,29.9707317 14.9853659,29.9707317 C23.2602896,29.9707317 29.9707317,23.2602896 29.9707317,14.9853659 C29.9707317,6.71044209 23.2602896,0 14.9853659,0 Z M23.5383384,18.5330031 C23.4967226,19.4490091 23.351067,20.0743902 23.1384146,20.6217988 C22.6913872,21.7776677 21.7776677,22.6913872 20.6217988,23.1384146 C20.0746189,23.351067 19.4490091,23.4964939 18.5332317,23.5383384 C17.615625,23.5801829 17.3224847,23.5902439 14.9855945,23.5902439 C12.6484756,23.5902439 12.355564,23.5801829 11.4377286,23.5383384 C10.5219512,23.4964939 9.89634146,23.351067 9.3491616,23.1384146 C8.77477136,22.9223323 8.25480181,22.5836891 7.82492377,22.1458079 C7.38727136,21.7161585 7.04862802,21.1959604 6.83254572,20.6217988 C6.61989331,20.0746189 6.47423778,19.4490091 6.43262195,18.5332317 C6.39032014,17.6153964 6.3804878,17.3222561 6.3804878,14.9853659 C6.3804878,12.6484756 6.39032014,12.3553353 6.43239331,11.4377286 C6.47400913,10.5217226 6.61943596,9.89634146 6.83208843,9.34893296 C7.04817073,8.77477136 7.38704265,8.25457317 7.82492377,7.82492377 C8.25457317,7.38704265 8.77477136,7.04839938 9.34893296,6.83231707 C9.89634146,6.61966466 10.5217226,6.47423778 11.4377286,6.43239331 C12.3553353,6.39054878 12.6484756,6.3804878 14.9853659,6.3804878 C17.3222561,6.3804878 17.6153964,6.39054878 18.5330031,6.43262195 C19.4490091,6.47423778 20.0743902,6.61966466 20.6217988,6.83208843 C21.1959604,7.04817073 21.7161585,7.38704265 22.1460366,7.82492377 C22.5836891,8.25480181 22.922561,8.77477136 23.1384146,9.34893296 C23.3512957,9.89634146 23.4967226,10.5217226 23.5385671,11.4377286 C23.5804116,12.3553353 23.5902439,12.6484756 23.5902439,14.9853659 C23.5902439,17.3222561 23.5804116,17.6153964 23.5383384,18.5330031 L23.5383384,18.5330031 Z" id="Shape"></path>
                </g>
            </g>
        </g>
    </g>
</svg>

<svg xmlns="http://www.w3.org/2000/svg" width="30" height="30" viewBox="0 0 30 30"><g><g><path fill="#fff" d="M19.58 11.425a1.033 1.033 0 1 1 0-2.065 1.033 1.033 0 0 1 0 2.065zm-4.594 7.98a4.419 4.419 0 1 1 0-8.838 4.419 4.419 0 0 1 0 8.838zm6.065-10.483a2.664 2.664 0 0 0-.99-.644c-.303-.118-.759-.258-1.598-.296-.907-.041-1.18-.05-3.477-.05-2.298 0-2.57.008-3.477.05-.839.038-1.295.178-1.598.296a2.662 2.662 0 0 0-.989.644 2.668 2.668 0 0 0-.644.99c-.118.302-.258.758-.296 1.597-.041.907-.05 1.18-.05 3.477 0 2.298.009 2.57.05 3.477.038.84.178 1.295.296 1.598.138.374.358.712.644.99.277.285.615.505.99.643.302.118.758.258 1.597.297.907.04 1.18.05 3.477.05 2.298 0 2.57-.01 3.477-.05.84-.039 1.295-.179 1.598-.297a2.85 2.85 0 0 0 1.633-1.633c.118-.303.258-.759.297-1.598.041-.907.05-1.18.05-3.477 0-2.298-.009-2.57-.05-3.477-.039-.839-.179-1.295-.297-1.598a2.666 2.666 0 0 0-.643-.99z"/></g><g><path fill="#fff" d="M23.138 20.622a4.4 4.4 0 0 1-2.516 2.516c-.547.213-1.173.358-2.089.4-.917.042-1.21.052-3.547.052-2.338 0-2.63-.01-3.548-.052-.916-.041-1.542-.187-2.089-.4a4.216 4.216 0 0 1-1.524-.992 4.217 4.217 0 0 1-.992-1.524c-.213-.547-.359-1.173-.4-2.089-.043-.918-.053-1.21-.053-3.548 0-2.337.01-2.63.052-3.547.042-.916.187-1.542.4-2.09a4.215 4.215 0 0 1 .993-1.523c.43-.438.95-.777 1.524-.993.547-.212 1.173-.358 2.089-.4.917-.041 1.21-.051 3.547-.051s2.63.01 3.548.052c.916.041 1.541.187 2.089.4a4.218 4.218 0 0 1 1.524.992c.438.43.777.95.992 1.524.213.547.359 1.173.4 2.089.042.917.052 1.21.052 3.547s-.01 2.63-.052 3.548c-.041.916-.187 1.541-.4 2.089zM14.985 0C6.71 0 0 6.71 0 14.985c0 8.275 6.71 14.986 14.985 14.986 8.275 0 14.986-6.71 14.986-14.986C29.97 6.71 23.26 0 14.985 0z"/></g></g></svg>
